X:1
T:Hellas pour quoy my
T:Hellas pour quoy my
T:Pierre Lescornet
C:Pierre Lescornet
%%score [ 1 [ 2 3 ] 4 ]
L:1/8
Q:1/4=80
M:2/2
K:C
V:1 treble nm="Superius" snm="S"
V:2 treble-8 nm="Tenor 1" snm="T 1"
V:3 treble-8 nm="Tenor 2" snm="T 2"
V:4 bass nm="Bassus" snm="B"
V:1
 A4 A2 A2 | c3 B AG FE | D2 G3 FED | C2 D2 F2 E2- | ED D4 C2 | D4 z2 A2 | A2 A2 c3 B | %7
w: Hel- las pour|quoy _ _ _ _ _|_ m'y _ _ _|_ _ fais tu|_ _ tant lan-|guir, veu|que tu sces _|
 AG FE D2 G2- | GFED C2 D2 | F2 E3 D D2- | D2 C2 D4- | D4 z2 G2 | G2 F2 E4 | z2 D2 F2 A2 | %14
w: _ _ _ _ _ que|_ _ _ _ _ _|t'ay- * * *|* me fort,|_ et|que pour toy|voul- droy cent|
 G2 F3 E E2- | E2 D2 E4 | z2 A2 B2 d2 | c2 B2 A2 c2 | B2 A4 G2 | A4 z4 | z2 A2 A2 A2 | %21
w: fois _ _ _|_ mou- rir,|et que pour|toy voul- droy cent|fois _ mou-|rir,|don- nes moy|
 cB AG A2 A2 | AG FE F2 F2 | E2 D2 C2 E2- | ED D4 C2 | D8 | z2 G2 G2 F2 | E2 F2 E2 D2 | E4 z2 D2 | %29
w: donc _ _ _ _ quel-|que- * * * peu de|_ _ _ _|* * con- *|fort,|ou aul- tre-|ment j'i- ray di-|sant que|
 F2 A2 G2 F2- | FE E4 D2 | E8 | z2 G2 G2 F2 | E2 G2 G2 F2 | E4 z2 c2- | c2 BA G2 c2 | B2 A4 G2 | %37
w: tu es sans _|_ _ _ pi-|tié|et qu'en toy|n'a joy' ne sou-|las et|_ qu'en _ toy n'a|joy' ne sou-|
 A2 A2 G2 F2 | E2 E2 DEFG | AB c4 BA | G3 A Bc d2- | dc/B/ A3 GFE | F2 E3 D D2- | D2 C2 DEFG | %44
w: las, ne aul- cu-|ne'a- mi- * * * *|||||* * tié, _ _ _|
 A3 B c3 B | G3 A Bc d2- | dc/B/ A3 GFE | F2 E3 D D2- | DC C2 D4- | D8 |] %50
w: _ ne- aul- *|cu- * * * ne'a-|||* * mi- tié.|_|
V:2
 f4 f2 f2 | e2 A2 c2 d2- | dc BA G2 c2- | cB AG F2 c2 | A2 B2 A4 | F4 z2 f2 | f2 f2 e2 A2 | %7
w: Hel- las pour|quoy m'y fais tu|_ _ _ _ _ tant|_ _ _ _ _ _|* * lan-|guir, veu|que tu sces que|
 c2 d3 c BA | G2 c3 B AG | F2 c2 A2 B2 | A8 | z2 d2 d2 c2 | B4 z2 A2 | B2 d2 d2 c2- | %14
w: t'ay- * * * *|me fort _ _ _|_ que t'ay- me|fort|et que pour|toy voul-|droy cen fois _|
 cB/A/ B2 A2 c2 | dc BA B2 c2 | B2 A4 G2 | A2 B2 d2 c2 | d4 e4 | z2 d2 d2 d2 | fe ed/c/ d2 d2 | %21
w: _ _ _ _ _ _||* * mou-|rir, [cent fois _|mou- rir,]|don- nes moy|donc _ _ _ _ _ quel-|
 c2 d2 f2 ed | c2 d4 A2- | A2 B2 c4- | c2 B2 A3 G |"^b" F2 B2 A4 | z2 e2 e2 d2 | c3 d e2 A2 | %28
w: que- peu _ _ _|_ _ _|||* con- fort,|ou aul- tre-|ment j'i- ray di-|
 c2 e2 d2 B2 | A2 c3 B/A/ B2 | A2 c2 dc BA | B4 z2 c2 | c2 B2 A3 B | c2 d2 e2 f2 | gf ed c2 e2- | %35
w: sant que tu es|sans _ _ _ _|_ _ pi- * * *|tié et|qu'en toy n'a _|_ joy' ne sou-|las _ _ _ _ et|
 e2 d2 e2 e2 | g2 d2 e3 d | c2 f2 e2 d2- | d2 c2 d4 | z2 AB cd e2- | e2 dc B4 | A3 G AB c2 | %42
w: _ qu'en toy n'a|joy' ne sou- *|* las, ne _|_ sou- las,|ne _ _ _ aul-|* cu- * *||
"^b" A3 G/A/ B4 | A4 F4 | z2 f2 e2 cd | ef g2 d3 e | f2 ed c2 d2- |"^b""^b" dc BA B4 | A4 F4- | %49
w: ne'a- * * mi-|tié, _|ne aul- cu- *|* * * ne'a- *|||mi- tié.|
 F8 |] %50
w: _|
V:3
 d4 d2 d2 | cB AG F4 | z2 E2 G2 A2- | AG FE D2 E2 | F2 G2 E4 | D4 z2 d2 | d2 d2 cB AG | F4 z2 E2 | %8
w: Hel- las pour-|quoy _ _ _ _|m'y fais tu|_ _ _ _ _ tant|lan- * *|guir, veu|que tu sces _ _ _|_ que|
 G2 A3 GFE | D2 E2 F2 G2 | E4 D4 | z8 | z2 d2 d2 c2 | B4 z2 A2 | c2 d2 c2 BA | B2 A4 G2 | %16
w: t'ay- * * * *||me fort,||et que pour|toy voul-|droy cent fois _ _|_ _ _|
 F2 E4 D2 | E4 z2 A2 | B2 d2 c2 B2- | BA A4 G2 | A4 D4 | z8 | z2 A2 A2 A2 | cB AG A2 A2 | %24
w: * * mou-|rir, voul-|droy cent fois _|_ _ _ mou-|* rir,||don- nes moy|donc _ _ _ _ quel-|
 G2 F2 E2 E2 | D2 G2 G2 F2 | E4 z4 | z2 A2 G2 F2 | E4 z2 d2 | d2 cB c2 d2 | c3 B/A/ B2 A2- | %31
w: que- peu de con-|fort ou aul- tre-|ment|j'i- ray di-|sant que|tu es _ _ sans-|_ _ _ _ _|
 A2 G2 A4 | E4 z2 A2 | A2 G2 c4 | B2 c3 B AG | A3 B cd ec | dc BA B4 | A3 B c2 d2 | A8 | %39
w: * pi- tié|_ et|qu'en toy n'a|joy- * * * *||* * * * e|ne _ _ sou-|las,|
 z2 A2 A2 c2- | cB G2 GA Bc | d2 DE FG A2- | AG E2 F2 G2 | E4 D3 E | FG A3 B c2- | cB G3 A Bc | %46
w: ne aul- cu-|* * ne'a- * * * *||* * * mi- *|* tié, _|_ _ _ _ _||
 d2 DE FG A2- | AG E2 F2 G2 | E4 D4- | D8 |] %50
w: * a- * * * *||mi- tié.|_|
V:4
 D,4 D,2 D,2 | A,2 F,4 D,2 | G,3 F, E,D, C,B,, | A,,2 D,4 C,2 | D,2 G,,2 A,,4 | D,4 z2 D,2 | %6
w: Hel- las pour-|quoy m'y fais|tu _ _ _ _ _|_ _ tant|lan- * *|guir, veu|
 D,2 D,2 A,2 F,2- | F,2 D,2 G,3 F, | E,D, C,B,, A,,2 D,2- | D,2 C,2 D,2 G,,2 | A,,4 z2 A,2 | %11
w: que tu sces _|_ _ que _|_ _ _ _ _ t'ay-|* * * me|fort et|
 G,2 F,2 E,4 | z4 z2 A,2 | A,2 G,2 F,4 | z2 D,2 F,2 A,2 | G,2 F,2 E,4 | D,2 C,2 B,,4 | %17
w: que pour toy,|et|que pour toy|voul- droy cent|fois _ _|_ _ mou-|
 A,,2 E,2 F,2 A,2 | G,2 F,2 E,3 D, | C,2 D,2 B,,4 | A,,4 z4 | z2 D,2 D,2 D,2 | F,E, D,C, D,2 D,2 | %23
w: rir, voul- droy cent|fois _ _ _|_ _ mou-|rir,|don- nes moy|donc _ _ _ _ quel-|
 C,2 D,2 A,,3 B,, | C,2 D,2 A,,4 |"^b" B,,2 G,,2 D,4 | z2 C,2 E,2 F,2 | C,2 A,,2 C,2 D,2 | %28
w: que- peu de _|_ con- *|* * fort,|ou aul- tre-|ment j'i- ray di-|
 A,,2 A,2 A,2 G,2 | F,4 z2 D,2 | F,2 A,2 G,2 F,2 | E,4 z2 A,2 | A,2 G,2 C4- | C2 B,2 A,4 | %34
w: sant, j'i- ray di-|sant que|tu es sans pi-|tié et|qu'n toy n'a|_ _ joy'|
 G,2 A,3 G,F,E, | F,4 E,2 A,2 | G,2 F,2 E,4 | A,,4 z4 | z4 D,3 E, | F,G, A,2 A,,2 A,,B,, | %40
w: ne _ _ _ _|_ _ _|* * sou-|las,|ne _|_ _ _ aul- cu- *|
 C,D, E,F, G,3 F, | D,E, F,3 E, D,C, |"^b" D,2 C,2 B,,2 G,,2 | A,,4 z2 D,2- | %44
w: * * * * ne'a- *||* * * mi-|tié, ne|
 D,E, F,G, A,2 A,,B,, | C,D, E,F, G,3 F, | D,E, F,3 E, D,C, |"^b" D,2 C,2 B,,2 G,,2 | A,,4 D,4- | %49
w: _ _ _ _ _ aul- *|* * * * cu- *|* * ne'a- * * *||mi- tié.|
 D,8 |] %50
w: _|

